X:1
T: The Flitch of Bacon
C:
R:Jig
Q:180
K:G
M:6/8
L:1/16
D2G2G2 B2A2B2|c2A2G2 F2G2A2|D2G2G2 B2A2B2|c2A2F2 G4G2|D2G2G2 B2A2B2|c2A2G2 F2G2A2|f2e2d2 f4d2|c2A2F2 G4z2|
D2G2G2 B2A2B2|c2A2G2 F2G2A2|D2G2G2 B2A2B2|c2A2F2 G4G2|D2G2G2 B2A2B2|c2A2G2 F2G2A2|f2e2d2 f4d2|c2A2F2 G4z2|
d2e2f2 g2a2g2|f2e2d2 g4B2|d2e2f2 g2a2g2|f2e2d2 c2A2F2|d2e2f2 g2a2g2|f2e2d2 g4d2|f2e2d2 f4d2|c2A2F2 G4z2|
d2e2f2 g2a2g2|f2e2d2 g4B2|d2e2f2 g2a2g2|f2e2d2 c2A2F2|d2e2f2 g2a2g2|f2e2d2 g4d2|f2e2d2 f4d2|c2A2F2 G4z2||
